X: 10737
T: Dr. Fauster's Tumblers
R: polka
M: 2/4
K: Gmajor
|:D|GD GA|BG Bc|d2 cB|A/G/A/B/ AD|
GD GA|BG Bc|d2 cB|A3:|
|:d|dc/d/ Bd|dc/d/ Bg|gf ea|fe/f/ dd|
dc/d/ BB|BA/B/ GD|Ec AF|G3:|

